contributed-vectors/launchbox.svg

<?xml version="1.0" encoding="UTF-8" standalone="no"?>
<svg
   xmlns:dc="http://purl.org/dc/elements/1.1/"
   xmlns:cc="http://creativecommons.org/ns#"
   xmlns:rdf="http://www.w3.org/1999/02/22-rdf-syntax-ns#"
   xmlns:svg="http://www.w3.org/2000/svg"
   xmlns="http://www.w3.org/2000/svg"
   xmlns:sodipodi="http://sodipodi.sourceforge.net/DTD/sodipodi-0.dtd"
   xmlns:inkscape="http://www.inkscape.org/namespaces/inkscape"
   viewBox="0 0 192 192"
   version="1.1"
   id="svg16"
   sodipodi:docname="launchbox.svg"
   inkscape:version="0.92.4 (5da689c313, 2019-01-14)">
  <metadata
     id="metadata20">
    <rdf:RDF>
      <cc:Work
         rdf:about="">
        <dc:format>image/svg+xml</dc:format>
        <dc:type
           rdf:resource="http://purl.org/dc/dcmitype/StillImage" />
        <dc:title />
      </cc:Work>
    </rdf:RDF>
  </metadata>
  <sodipodi:namedview
     pagecolor="#ffffff"
     bordercolor="#666666"
     borderopacity="1"
     objecttolerance="10"
     gridtolerance="10"
     guidetolerance="10"
     inkscape:pageopacity="0"
     inkscape:pageshadow="2"
     inkscape:window-width="1920"
     inkscape:window-height="1017"
     id="namedview18"
     showgrid="true"
     inkscape:zoom="4.9166667"
     inkscape:cx="94.898299"
     inkscape:cy="108.21733"
     inkscape:window-x="-8"
     inkscape:window-y="-8"
     inkscape:window-maximized="1"
     inkscape:current-layer="svg16"
     inkscape:snap-global="true">
    <inkscape:grid
       type="xygrid"
       id="grid827"
       spacingx="4"
       spacingy="4" />
  </sodipodi:namedview>
  <defs
     id="defs4">
    <style
       id="style2">.a{fill:none;stroke:#b1b5bd;stroke-linecap:round;stroke-linejoin:round;isolation:isolate;opacity:0.63;}</style>
    <style
       id="style2-7">.a{fill:none;stroke:#b1b5bd;stroke-linecap:round;stroke-linejoin:round;isolation:isolate;opacity:0.63;}</style>
  </defs>
  <path
     inkscape:connector-curvature="0"
     style="fill:#56595b;stroke:#56595b;stroke-width:24;stroke-linecap:round;stroke-linejoin:round;stroke-miterlimit:4;stroke-dasharray:none;stroke-opacity:1"
     d="M 96,20 30.181641,58 v 75.99999 l 65.818359,38 65.81836,-38 V 58 Z"
     id="path839" />
  <path
     style="opacity:1;vector-effect:none;fill:#9abeff;fill-opacity:1;stroke:none;stroke-width:1px;stroke-linecap:butt;stroke-linejoin:miter;stroke-miterlimit:4;stroke-dasharray:none;stroke-dashoffset:0;stroke-opacity:1"
     d="m 32,62 v 34.23438 l 28,15.64843 V 77.867188 Z"
     id="path885"
     inkscape:connector-curvature="0" />
  <path
     style="opacity:1;vector-effect:none;fill:#8c72bd;fill-opacity:1;stroke:none;stroke-width:1px;stroke-linecap:butt;stroke-linejoin:miter;stroke-miterlimit:4;stroke-dasharray:none;stroke-dashoffset:0;stroke-opacity:1"
     d="m 64,80.132812 v 33.984378 l 28,15.64843 V 96 Z"
     id="path883"
     inkscape:connector-curvature="0" />
  <path
     style="opacity:1;vector-effect:none;fill:#ff837d;fill-opacity:1;stroke:none;stroke-width:1px;stroke-linecap:butt;stroke-linejoin:miter;stroke-miterlimit:4;stroke-dasharray:none;stroke-dashoffset:0;stroke-opacity:1"
     d="M 32,100.23438 V 132 l 28,16.80078 v -32.91797 z"
     id="path881"
     inkscape:connector-curvature="0" />
  <path
     style="opacity:1;vector-effect:none;fill:#f9de81;fill-opacity:1;stroke:none;stroke-width:1px;stroke-linecap:butt;stroke-linejoin:miter;stroke-miterlimit:4;stroke-dasharray:none;stroke-dashoffset:0;stroke-opacity:1"
     d="m 64,118.11719 v 33.08203 L 92,168 v -34.23438 z"
     id="path828"
     inkscape:connector-curvature="0" />
  <path
     style="fill:#8c72bd;stroke:none;stroke-width:1px;stroke-linecap:butt;stroke-linejoin:miter;stroke-opacity:1"
     d="m 160,62 v 34.23438 l -28,15.64843 V 77.867188 Z"
     id="path893"
     inkscape:connector-curvature="0" />
  <path
     style="fill:#f9de81;stroke:none;stroke-width:1px;stroke-linecap:butt;stroke-linejoin:miter;stroke-opacity:1"
     d="m 128,80.132812 v 33.984378 l -28,15.64843 V 96 Z"
     id="path891"
     inkscape:connector-curvature="0" />
  <path
     style="fill:#9abeff;stroke:none;stroke-width:1px;stroke-linecap:butt;stroke-linejoin:miter;stroke-opacity:1"
     d="M 160,100.23438 V 132 l -28,16.80078 v -32.91797 z"
     id="path889"
     inkscape:connector-curvature="0" />
  <path
     style="fill:#ff837d;stroke:none;stroke-width:1px;stroke-linecap:butt;stroke-linejoin:miter;stroke-opacity:1"
     d="m 128,118.11719 v 33.08203 L 100,168 v -34.23438 z"
     id="path828-1"
     inkscape:connector-curvature="0" />
  <path
     style="fill:#f9de81;stroke:none;stroke-width:1px;stroke-linecap:butt;stroke-linejoin:miter;stroke-opacity:1"
     d="M 156.62178,55 126.97393,72.11719 99.422,55.6927 128.88039,38.68488 Z"
     id="path877"
     inkscape:connector-curvature="0" />
  <path
     style="fill:#8c72bd;stroke:none;stroke-width:1px;stroke-linecap:butt;stroke-linejoin:miter;stroke-opacity:1"
     d="M 124.9183,36.353595 95.48697,53.34578 67.93503,36.92129 97.17691,20.038478 Z"
     id="path875"
     inkscape:connector-curvature="0" />
  <path
     style="fill:#ff837d;stroke:none;stroke-width:1px;stroke-linecap:butt;stroke-linejoin:miter;stroke-opacity:1"
     d="M 123.50983,74.11719 96,90 67.4501,74.15168 95.95789,57.6927 Z"
     id="path873"
     inkscape:connector-curvature="0" />
  <path
     style="fill:#9abeff;stroke:none;stroke-width:1px;stroke-linecap:butt;stroke-linejoin:miter;stroke-opacity:1"
     d="M 92.02286,55.34578 63.37299,71.8868 34.823084,56.03848 64.47093,38.92129 Z"
     id="path828-1-3"
     inkscape:connector-curvature="0" />
</svg>

<svg xmlns="http://www.w3.org/2000/svg" id="svg16" version="1.1" viewBox="0 0 192 192"><defs id="defs4"><style id="style2">.a{fill:none;stroke:#b1b5bd;stroke-linecap:round;stroke-linejoin:round;isolation:isolate;opacity:.63}</style></defs><path id="path839" d="M96 20 30.182 58v76L96 172l65.818-38V58Z" style="fill:#56595b;stroke:#56595b;stroke-width:24;stroke-linecap:round;stroke-linejoin:round;stroke-miterlimit:4;stroke-dasharray:none;stroke-opacity:1"/><path id="path885" d="M32 62v34.234l28 15.649V77.867Z" style="opacity:1;vector-effect:none;fill:#9abeff;fill-opacity:1;stroke:none;stroke-width:1px;stroke-linecap:butt;stroke-linejoin:miter;stroke-miterlimit:4;stroke-dasharray:none;stroke-dashoffset:0;stroke-opacity:1"/><path id="path883" d="M64 80.133v33.984l28 15.649V96Z" style="opacity:1;vector-effect:none;fill:#8c72bd;fill-opacity:1;stroke:none;stroke-width:1px;stroke-linecap:butt;stroke-linejoin:miter;stroke-miterlimit:4;stroke-dasharray:none;stroke-dashoffset:0;stroke-opacity:1"/><path id="path881" d="M32 100.234V132l28 16.8v-32.917z" style="opacity:1;vector-effect:none;fill:#ff837d;fill-opacity:1;stroke:none;stroke-width:1px;stroke-linecap:butt;stroke-linejoin:miter;stroke-miterlimit:4;stroke-dasharray:none;stroke-dashoffset:0;stroke-opacity:1"/><path id="path828" d="M64 118.117V151.2L92 168v-34.234z" style="opacity:1;vector-effect:none;fill:#f9de81;fill-opacity:1;stroke:none;stroke-width:1px;stroke-linecap:butt;stroke-linejoin:miter;stroke-miterlimit:4;stroke-dasharray:none;stroke-dashoffset:0;stroke-opacity:1"/><path id="path893" d="M160 62v34.234l-28 15.649V77.867Z" style="fill:#8c72bd;stroke:none;stroke-width:1px;stroke-linecap:butt;stroke-linejoin:miter;stroke-opacity:1"/><path id="path891" d="M128 80.133v33.984l-28 15.649V96Z" style="fill:#f9de81;stroke:none;stroke-width:1px;stroke-linecap:butt;stroke-linejoin:miter;stroke-opacity:1"/><path id="path889" d="M160 100.234V132l-28 16.8v-32.917z" style="fill:#9abeff;stroke:none;stroke-width:1px;stroke-linecap:butt;stroke-linejoin:miter;stroke-opacity:1"/><path id="path828-1" d="M128 118.117V151.2L100 168v-34.234z" style="fill:#ff837d;stroke:none;stroke-width:1px;stroke-linecap:butt;stroke-linejoin:miter;stroke-opacity:1"/><path id="path877" d="m156.622 55-29.648 17.117-27.552-16.424 29.458-17.008Z" style="fill:#f9de81;stroke:none;stroke-width:1px;stroke-linecap:butt;stroke-linejoin:miter;stroke-opacity:1"/><path id="path875" d="M124.918 36.354 95.487 53.346 67.935 36.92l29.242-16.883Z" style="fill:#8c72bd;stroke:none;stroke-width:1px;stroke-linecap:butt;stroke-linejoin:miter;stroke-opacity:1"/><path id="path873" d="M123.51 74.117 96 90 67.45 74.152l28.508-16.46Z" style="fill:#ff837d;stroke:none;stroke-width:1px;stroke-linecap:butt;stroke-linejoin:miter;stroke-opacity:1"/><path id="path828-1-3" d="m92.023 55.346-28.65 16.54-28.55-15.848 29.648-17.117Z" style="fill:#9abeff;stroke:none;stroke-width:1px;stroke-linecap:butt;stroke-linejoin:miter;stroke-opacity:1"/></svg>
